images/logo.svg

<svg width="145" height="37" viewBox="0 0 145 37" fill="none" xmlns="http://www.w3.org/2000/svg">
<path d="M27.2188 0.177398V35.4774H19.6135V33.0774C17.9124 34.9774 15.5107 36.1774 12.1084 36.1774C5.5038 36.1774 0 30.3774 0 22.8774C0 15.3774 5.5038 9.5774 12.1084 9.5774C15.5107 9.5774 18.0124 10.7774 19.6135 12.6774V0.177398H27.2188ZM19.6135 22.8774C19.6135 19.0774 17.1118 16.6774 13.6094 16.6774C10.107 16.6774 7.60524 19.0774 7.60524 22.8774C7.60524 26.6774 10.107 29.0774 13.6094 29.0774C17.1118 28.9774 19.6135 26.6774 19.6135 22.8774Z" fill="black"/>
<path d="M43.7298 29.3773C45.8313 29.3773 47.5325 28.5773 48.5332 27.4773L54.6374 30.9773C52.1356 34.3773 48.4331 36.1773 43.6298 36.1773C35.0238 36.1773 29.6201 30.3773 29.6201 22.8773C29.6201 15.3773 35.0238 9.5773 43.0294 9.5773C50.4345 9.5773 55.8382 15.2773 55.8382 22.8773C55.8382 23.9773 55.7381 24.9773 55.538 25.8773H37.6256C38.6263 28.4773 40.9279 29.3773 43.7298 29.3773ZM48.333 20.2773C47.5325 17.3773 45.2309 16.2773 42.9293 16.2773C40.0273 16.2773 38.126 17.6773 37.4255 20.2773H48.333Z" fill="black"/>
<path d="M82.1563 10.2775L72.8499 35.4775H64.2439L54.9375 10.2775H63.3433L68.647 26.2775L73.9506 10.2775C73.9506 10.2775 82.1563 10.2775 82.1563 10.2775Z" fill="black"/>
<path d="M83.458 10.2775H91.0633V35.4775H83.458V10.2775Z" fill="black"/>
<path d="M93.665 22.8773C93.665 15.3773 99.369 9.5773 107.074 9.5773C111.978 9.5773 116.281 12.1773 118.482 16.0773L111.878 19.8773C110.977 18.0773 109.176 17.0773 106.974 17.0773C103.672 17.0773 101.27 19.4773 101.27 22.8773C101.27 26.3773 103.672 28.6773 106.974 28.6773C109.176 28.6773 111.077 27.5773 111.878 25.8773L118.482 29.6773C116.381 33.5773 112.078 36.1773 107.074 36.1773C99.369 36.1773 93.665 30.3773 93.665 22.8773Z" fill="black"/>
<path d="M132.892 29.3773C134.993 29.3773 136.695 28.5773 137.695 27.4773L143.799 30.9773C141.298 34.3773 137.595 36.1773 132.792 36.1773C124.186 36.1773 118.782 30.3773 118.782 22.8773C118.782 15.3773 124.286 9.5773 132.191 9.5773C139.597 9.5773 145 15.2773 145 22.8773C145 23.9773 144.9 24.9773 144.7 25.8773H126.788C127.788 28.4773 130.09 29.3773 132.892 29.3773ZM137.595 20.2773C136.795 17.3773 134.493 16.2773 132.191 16.2773C129.289 16.2773 127.388 17.6773 126.688 20.2773H137.595Z" fill="black"/>
<path d="M83.458 0.177398V10.2774L91.0633 0.177398H83.458Z" fill="#510094"/>
</svg>

<svg xmlns="http://www.w3.org/2000/svg" width="145" height="37" fill="none" viewBox="0 0 145 37"><path fill="#000" d="M27.2.2v35.3h-7.6V33a9.5 9.5 0 0 1-7.5 3C5.5 36.2 0 30.5 0 23 0 15.4 5.5 9.6 12.1 9.6c3.4 0 6 1.2 7.5 3V.3h7.6Zm-7.6 22.7c0-3.8-2.5-6.2-6-6.2s-6 2.4-6 6.2c0 3.8 2.5 6.2 6 6.2 3.5-.1 6-2.4 6-6.2Zm24.1 6.5c2.1 0 3.8-.8 4.8-2l6.1 3.6a13 13 0 0 1-11 5.2c-8.6 0-14-5.8-14-13.3C29.6 15.4 35 9.6 43 9.6c7.4 0 12.8 5.7 12.8 13.3 0 1 0 2-.3 3H37.6c1 2.6 3.3 3.5 6.1 3.5Zm4.6-9.1c-.8-3-3-4-5.4-4-2.9 0-4.8 1.4-5.5 4h11Zm33.9-10-9.4 25.2h-8.6L55 10.3h8.4l5.3 16 5.4-16h8.2Zm1.3 0H91v25.2h-7.6V10.3Zm10.2 12.6A13 13 0 0 1 107 9.6a13 13 0 0 1 11.4 6.5l-6.6 3.8c-1-1.8-2.7-2.8-5-2.8a5.5 5.5 0 0 0-5.6 5.8c0 3.5 2.4 5.8 5.7 5.8 2.2 0 4-1.1 4.9-2.8l6.6 3.8a12.8 12.8 0 0 1-11.4 6.5 13 13 0 0 1-13.4-13.3Zm39.2 6.5c2.1 0 3.8-.8 4.8-2l6.1 3.6a13 13 0 0 1-11 5.2c-8.6 0-14-5.8-14-13.3a13 13 0 0 1 13.4-13.3c7.4 0 12.8 5.7 12.8 13.3l-.3 3h-18c1 2.6 3.4 3.5 6.2 3.5Zm4.7-9.1c-.8-3-3.1-4-5.4-4-3 0-4.8 1.4-5.5 4h10.9Z"/><path fill="#510094" d="M83.5.2v10L91 .3h-7.6Z"/></svg>
